images/item-team-img1.svg

<svg width="40" height="40" viewBox="0 0 40 40" fill="none" xmlns="http://www.w3.org/2000/svg">
<g id="company 1" clip-path="url(#clip0_0_123)">
<g id="Group">
<path id="Vector" d="M37 34.2612C37.6906 33.6787 38.125 32.815 38.125 31.875V26.875C38.125 24.8363 37.1394 23.0288 35.625 21.8869V8.125H25.625V3.125H23.125V1.875H21.875V3.125H20.625V0.625H19.375V3.125H18.125V1.875H16.875V3.125H14.375V8.125H4.375V21.8869C2.86063 23.0288 1.875 24.8363 1.875 26.875V35.2825C1.08938 36.23 0.625 37.4419 0.625 38.75V39.375H39.3737L39.375 38.7506C39.3781 36.9087 38.4562 35.2481 37 34.2612ZM36.875 26.875V31.875C36.875 32.6437 36.3956 33.33 35.6931 33.6113C35.5556 33.565 35.4156 33.5225 35.2731 33.4869L34.2656 33.235L34.1213 32.6588C35.0187 32.1088 35.625 31.1275 35.625 30V26.25H35C34.0356 26.25 33.14 25.7706 32.605 24.9681L32.5 24.8106V23.125H31.25V24.8106L31.145 24.9681C30.61 25.7706 29.7144 26.25 28.75 26.25H28.125V30C28.125 31.1275 28.7312 32.1087 29.6287 32.6581L29.4844 33.2337L28.4838 33.4825C28.3381 33.5187 28.195 33.5619 28.0538 33.6094C27.3538 33.3281 26.875 32.6425 26.875 31.875V26.875C26.875 24.1181 29.1181 21.875 31.875 21.875C34.6319 21.875 36.875 24.1181 36.875 26.875ZM25 25.4713C25 25.6325 24.975 25.7894 24.9537 25.9475C24.595 25.7481 24.1887 25.625 23.75 25.625H23.125H23.0175C22.0444 25.625 21.1294 25.2463 20.4419 24.5581L20 24.1156L19.5581 24.5581C18.87 25.2463 17.9556 25.625 16.9825 25.625H16.875H16.25C15.8112 25.625 15.405 25.7481 15.0462 25.9475C15.025 25.7894 15 25.6325 15 25.4713C15 23.4881 16.6131 21.875 18.5963 21.875H21.4037C23.3869 21.875 25 23.4881 25 25.4713ZM25.9381 34.94C25.2581 34.2506 24.3913 33.7363 23.3981 33.4875L22.3906 33.2356L22.2463 32.6594C22.9738 32.2138 23.5112 31.4881 23.6869 30.6256H23.75C24.5006 30.6256 25.1663 30.2869 25.625 29.7619V31.875C25.625 32.8144 26.0594 33.6775 26.7494 34.2606C26.4575 34.4588 26.1869 34.6875 25.9381 34.94ZM14.375 34.6444V29.7612C14.8337 30.2862 15.4994 30.625 16.25 30.625H16.3131C16.4887 31.4875 17.0263 32.2131 17.7537 32.6581L17.6094 33.2337L16.6087 33.4825C15.76 33.6944 15.0031 34.1012 14.375 34.6444ZM16.25 29.375C15.5606 29.375 15 28.8144 15 28.125C15 27.4356 15.5606 26.875 16.25 26.875V29.375ZM20.625 31.875H19.375C18.3412 31.875 17.5 31.0338 17.5 30V26.8481C18.4163 26.7525 19.2775 26.4031 20 25.8344C20.7225 26.4031 21.5837 26.7519 22.5 26.8481V30C22.5 31.0338 21.6588 31.875 20.625 31.875ZM18.9363 33.0806C19.0813 33.1012 19.225 33.125 19.375 33.125H20.625C20.775 33.125 20.9187 33.1012 21.0637 33.0806L21.1969 33.6125L20 35.2081L18.8031 33.6125L18.9363 33.0806ZM23.75 26.875C24.4394 26.875 25 27.4356 25 28.125C25 28.8144 24.4394 29.375 23.75 29.375V26.875ZM16.9113 34.6963L17.8737 34.4569L20 37.2919L22.1256 34.4575L23.0938 34.7C24.7494 35.1144 25.9531 36.4794 26.1981 38.125H13.8019C14.0463 36.4756 15.2525 35.1081 16.9113 34.6963ZM26.72 35.9463C27.2725 35.34 27.9856 34.895 28.7856 34.6956L29.3906 34.545C29.4488 35.8369 29.8469 37.0669 30.5556 38.1244H27.4606C27.3713 37.3394 27.1144 36.6 26.72 35.9463ZM31.875 26.0694C32.5181 26.8156 33.4038 27.305 34.375 27.4525V30C34.375 31.0338 33.5337 31.875 32.5 31.875H31.25C30.2162 31.875 29.375 31.0338 29.375 30V27.4525C30.3463 27.305 31.2319 26.8156 31.875 26.0694ZM31.25 33.125H32.5C32.65 33.125 32.7938 33.1012 32.9388 33.0806L33.125 33.8256V34.2231C33.125 34.2744 33.1187 34.3237 33.1175 34.375H30.6325C30.6313 34.3244 30.625 34.2744 30.625 34.2231V33.8263L30.8113 33.0806C30.9563 33.1012 31.1 33.125 31.25 33.125ZM30.8025 35.625H32.9475C32.7506 36.4188 32.3894 37.1606 31.875 37.8075C31.3606 37.1606 30.9994 36.4188 30.8025 35.625ZM34.375 21.1506C33.6087 20.8144 32.7637 20.625 31.875 20.625C29.3019 20.625 27.0881 22.1894 26.1306 24.4156C25.7744 22.8187 24.6281 21.52 23.125 20.9463V9.375H34.375V21.1506ZM21.875 8.125V20.6487C21.72 20.6337 21.5631 20.625 21.4037 20.625H18.5963C17.4762 20.625 16.4469 21.0106 15.625 21.6512V6.875H24.375V8.125H21.875ZM24.375 4.375V5.625H15.625V4.375H24.375ZM5.625 9.375H14.375V23.0988C14.1456 23.5056 13.9738 23.9475 13.8694 24.4156C12.9119 22.1887 10.6981 20.625 8.125 20.625C7.23625 20.625 6.39125 20.8144 5.625 21.1506V9.375ZM8.125 21.875C10.8819 21.875 13.125 24.1181 13.125 26.875V34.1831C12.6337 33.8688 12.0944 33.63 11.5231 33.4869L10.5156 33.235L10.3713 32.6588C11.2688 32.1088 11.875 31.1275 11.875 30V26.25H9.725C8.9325 26.25 8.1975 25.8562 7.75813 25.1969C7.41437 24.6825 6.84 24.375 6.22125 24.375C5.20313 24.375 4.375 25.2025 4.375 26.22V30C4.375 31.1275 4.98125 32.1087 5.87875 32.6581L5.73438 33.2337L4.73375 33.4825C4.15062 33.6281 3.61063 33.8662 3.125 34.1756V26.875C3.125 24.1181 5.36812 21.875 8.125 21.875ZM8.75 31.875H7.5C6.46625 31.875 5.625 31.0338 5.625 30V26.22C5.625 25.8919 5.8925 25.625 6.22125 25.625C6.42063 25.625 6.60625 25.7244 6.7175 25.8906C7.38875 26.8981 8.51313 27.5 9.725 27.5H10.625V30C10.625 31.0338 9.78375 31.875 8.75 31.875ZM7.06125 33.0806C7.20625 33.1012 7.35 33.125 7.5 33.125H8.75C8.9 33.125 9.04375 33.1012 9.18875 33.0806L9.37 33.8037C9.34062 34.4681 8.79562 35 8.125 35C7.45438 35 6.90937 34.4681 6.88062 33.8044L7.06125 33.0806ZM5.03625 34.6963L5.75813 34.5169C6.08375 35.5187 7.015 36.25 8.125 36.25C9.23438 36.25 10.1656 35.5194 10.4919 34.5175L11.2188 34.7C12.0163 34.8994 12.7275 35.3438 13.2781 35.9487C12.8863 36.6012 12.6294 37.3394 12.5394 38.1256H1.92C2.16375 36.4744 3.37687 35.1087 5.03625 34.6963ZM33.1944 38.125C33.9031 37.0681 34.3006 35.8381 34.3594 34.5469L34.9688 34.6994C36.625 35.1144 37.835 36.4781 38.08 38.1244L33.1944 38.125Z" fill="#1E8E31"/>
<path id="Vector_2" d="M16.875 8.125H18.125V9.375H16.875V8.125Z" fill="#1E8E31"/>
<path id="Vector_3" d="M19.375 8.125H20.625V9.375H19.375V8.125Z" fill="#1E8E31"/>
<path id="Vector_4" d="M16.875 10.625H18.125V11.875H16.875V10.625Z" fill="#1E8E31"/>
<path id="Vector_5" d="M19.375 10.625H20.625V11.875H19.375V10.625Z" fill="#1E8E31"/>
<path id="Vector_6" d="M19.375 13.125H20.625V14.375H19.375V13.125Z" fill="#1E8E31"/>
<path id="Vector_7" d="M16.875 13.125H18.125V14.375H16.875V13.125Z" fill="#1E8E31"/>
<path id="Vector_8" d="M16.875 15.625H18.125V16.875H16.875V15.625Z" fill="#1E8E31"/>
<path id="Vector_9" d="M19.375 15.625H20.625V16.875H19.375V15.625Z" fill="#1E8E31"/>
<path id="Vector_10" d="M19.375 18.125H20.625V19.375H19.375V18.125Z" fill="#1E8E31"/>
<path id="Vector_11" d="M16.875 18.125H18.125V19.375H16.875V18.125Z" fill="#1E8E31"/>
<path id="Vector_12" d="M24.375 10.625H25.625V11.875H24.375V10.625Z" fill="#1E8E31"/>
<path id="Vector_13" d="M24.375 15.625H25.625V16.875H24.375V15.625Z" fill="#1E8E31"/>
<path id="Vector_14" d="M24.375 13.125H25.625V14.375H24.375V13.125Z" fill="#1E8E31"/>
<path id="Vector_15" d="M24.375 18.125H25.625V19.375H24.375V18.125Z" fill="#1E8E31"/>
<path id="Vector_16" d="M26.875 10.625H28.125V11.875H26.875V10.625Z" fill="#1E8E31"/>
<path id="Vector_17" d="M26.875 18.125H28.125V19.375H26.875V18.125Z" fill="#1E8E31"/>
<path id="Vector_18" d="M26.875 15.625H28.125V16.875H26.875V15.625Z" fill="#1E8E31"/>
<path id="Vector_19" d="M26.875 13.125H28.125V14.375H26.875V13.125Z" fill="#1E8E31"/>
<path id="Vector_20" d="M29.375 10.625H30.625V11.875H29.375V10.625Z" fill="#1E8E31"/>
<path id="Vector_21" d="M29.375 13.125H30.625V14.375H29.375V13.125Z" fill="#1E8E31"/>
<path id="Vector_22" d="M29.375 15.625H30.625V16.875H29.375V15.625Z" fill="#1E8E31"/>
<path id="Vector_23" d="M29.375 18.125H30.625V19.375H29.375V18.125Z" fill="#1E8E31"/>
<path id="Vector_24" d="M31.875 10.625H33.125V11.875H31.875V10.625Z" fill="#1E8E31"/>
<path id="Vector_25" d="M31.875 15.625H33.125V16.875H31.875V15.625Z" fill="#1E8E31"/>
<path id="Vector_26" d="M31.875 13.125H33.125V14.375H31.875V13.125Z" fill="#1E8E31"/>
<path id="Vector_27" d="M31.875 18.125H33.125V19.375H31.875V18.125Z" fill="#1E8E31"/>
<path id="Vector_28" d="M6.875 18.125H8.125V19.375H6.875V18.125Z" fill="#1E8E31"/>
<path id="Vector_29" d="M6.875 13.125H8.125V14.375H6.875V13.125Z" fill="#1E8E31"/>
<path id="Vector_30" d="M6.875 10.625H8.125V11.875H6.875V10.625Z" fill="#1E8E31"/>
<path id="Vector_31" d="M6.875 15.625H8.125V16.875H6.875V15.625Z" fill="#1E8E31"/>
<path id="Vector_32" d="M9.375 18.125H10.625V19.375H9.375V18.125Z" fill="#1E8E31"/>
<path id="Vector_33" d="M9.375 15.625H10.625V16.875H9.375V15.625Z" fill="#1E8E31"/>
<path id="Vector_34" d="M9.375 13.125H10.625V14.375H9.375V13.125Z" fill="#1E8E31"/>
<path id="Vector_35" d="M9.375 10.625H10.625V11.875H9.375V10.625Z" fill="#1E8E31"/>
<path id="Vector_36" d="M11.875 15.625H13.125V16.875H11.875V15.625Z" fill="#1E8E31"/>
<path id="Vector_37" d="M11.875 18.125H13.125V19.375H11.875V18.125Z" fill="#1E8E31"/>
<path id="Vector_38" d="M11.875 13.125H13.125V14.375H11.875V13.125Z" fill="#1E8E31"/>
<path id="Vector_39" d="M11.875 10.625H13.125V11.875H11.875V10.625Z" fill="#1E8E31"/>
</g>
</g>
<defs>
<clipPath id="clip0_0_123">
<rect width="40" height="40" fill="white"/>
</clipPath>
</defs>
</svg>

<svg xmlns="http://www.w3.org/2000/svg" width="40" height="40" fill="none"><g fill="#1E8E31" clip-path="url(#a)"><path d="M37 34.261a3.13 3.13 0 0 0 1.125-2.386v-5a6.238 6.238 0 0 0-2.5-4.988V8.125h-10v-5h-2.5v-1.25h-1.25v1.25h-1.25v-2.5h-1.25v2.5h-1.25v-1.25h-1.25v1.25h-2.5v5h-10v13.762a6.238 6.238 0 0 0-2.5 4.988v8.407a5.418 5.418 0 0 0-1.25 3.468v.625h38.749l.001-.624A5.405 5.405 0 0 0 37 34.26Zm-.125-7.386v5a1.88 1.88 0 0 1-1.182 1.736 5.478 5.478 0 0 0-.42-.124l-1.007-.252-.145-.576A3.118 3.118 0 0 0 35.625 30v-3.75H35c-.964 0-1.86-.48-2.395-1.282l-.105-.157v-1.686h-1.25v1.686l-.105.157a2.873 2.873 0 0 1-2.395 1.282h-.625V30c0 1.128.606 2.109 1.504 2.658l-.145.576-1 .248c-.146.037-.289.08-.43.127a1.88 1.88 0 0 1-1.179-1.734v-5c0-2.757 2.243-5 5-5s5 2.243 5 5ZM25 25.471c0 .162-.025.318-.046.477a2.466 2.466 0 0 0-1.204-.323h-.733a3.617 3.617 0 0 1-2.575-1.067L20 24.116l-.442.442a3.618 3.618 0 0 1-2.575 1.067h-.733c-.439 0-.845.123-1.204.323-.021-.159-.046-.316-.046-.477a3.6 3.6 0 0 1 3.596-3.596h2.808A3.6 3.6 0 0 1 25 25.471Zm.938 9.469a5.405 5.405 0 0 0-2.54-1.453l-1.007-.251-.145-.577a3.125 3.125 0 0 0 1.44-2.033h.064c.75 0 1.416-.34 1.875-.864v2.113c0 .94.434 1.803 1.124 2.386a5.399 5.399 0 0 0-.81.679Zm-11.563-.296v-4.883a2.483 2.483 0 0 0 1.875.864h.063a3.122 3.122 0 0 0 1.44 2.033l-.144.576-1 .248a5.413 5.413 0 0 0-2.234 1.162Zm1.875-5.269a1.251 1.251 0 0 1 0-2.5v2.5Zm4.375 2.5h-1.25A1.877 1.877 0 0 1 17.5 30v-3.152a4.84 4.84 0 0 0 2.5-1.014 4.846 4.846 0 0 0 2.5 1.014V30a1.877 1.877 0 0 1-1.875 1.875Zm-1.689 1.206c.145.02.289.044.439.044h1.25c.15 0 .294-.024.439-.044l.133.531L20 35.209l-1.197-1.596.133-.531Zm4.814-6.206a1.251 1.251 0 0 1 0 2.5v-2.5Zm-6.839 7.821.963-.24L20 37.293l2.126-2.834.968.242a4.156 4.156 0 0 1 3.104 3.425H13.802a4.153 4.153 0 0 1 3.11-3.429Zm9.809 1.25a4.17 4.17 0 0 1 2.066-1.25l.605-.151a6.964 6.964 0 0 0 1.165 3.58H27.46a5.39 5.39 0 0 0-.741-2.179Zm5.155-9.877a4.114 4.114 0 0 0 2.5 1.384V30a1.877 1.877 0 0 1-1.875 1.875h-1.25A1.877 1.877 0 0 1 29.375 30v-2.547a4.113 4.113 0 0 0 2.5-1.384Zm-.625 7.056h1.25c.15 0 .294-.024.439-.044l.186.745v.397c0 .051-.006.1-.008.152h-2.484c-.002-.05-.008-.1-.008-.152v-.397l.186-.745c.145.02.289.044.439.044Zm-.448 2.5h2.145a5.702 5.702 0 0 1-1.072 2.182 5.702 5.702 0 0 1-1.073-2.182Zm3.573-14.474a6.207 6.207 0 0 0-2.5-.526 6.26 6.26 0 0 0-5.744 3.79 4.858 4.858 0 0 0-3.006-3.469V9.375h11.25v11.776Zm-12.5-13.026v12.524a4.885 4.885 0 0 0-.471-.024h-2.808c-1.12 0-2.15.386-2.971 1.026V6.875h8.75v1.25h-2.5Zm2.5-3.75v1.25h-8.75v-1.25h8.75Zm-18.75 5h8.75v13.724c-.23.407-.401.849-.506 1.317a6.259 6.259 0 0 0-5.744-3.791c-.889 0-1.734.19-2.5.526V9.375Zm2.5 12.5c2.757 0 5 2.243 5 5v7.308a5.419 5.419 0 0 0-1.602-.696l-1.007-.252-.145-.576A3.118 3.118 0 0 0 11.875 30v-3.75h-2.15a2.359 2.359 0 0 1-1.967-1.053 1.845 1.845 0 0 0-3.383 1.023V30c0 1.128.606 2.109 1.504 2.658l-.145.576-1 .248a5.446 5.446 0 0 0-1.609.694v-7.301c0-2.757 2.243-5 5-5Zm.625 10H7.5A1.877 1.877 0 0 1 5.625 30v-3.78a.596.596 0 0 1 1.093-.33 3.606 3.606 0 0 0 3.007 1.61h.9V30a1.877 1.877 0 0 1-1.875 1.875Zm-1.689 1.206c.145.02.289.044.439.044h1.25c.15 0 .294-.024.439-.044l.181.723A1.25 1.25 0 0 1 8.125 35c-.67 0-1.216-.532-1.244-1.196l.18-.723Zm-2.025 1.615.722-.18a2.494 2.494 0 0 0 2.367 1.734c1.11 0 2.04-.73 2.367-1.733l.727.183c.797.2 1.508.644 2.06 1.249a5.42 5.42 0 0 0-.74 2.177H1.92a4.158 4.158 0 0 1 3.116-3.43Zm28.158 3.429a6.965 6.965 0 0 0 1.165-3.578l.61.152a4.162 4.162 0 0 1 3.111 3.425l-4.886.001Z"/><path d="M16.875 8.125h1.25v1.25h-1.25v-1.25ZM19.375 8.125h1.25v1.25h-1.25v-1.25ZM16.875 10.625h1.25v1.25h-1.25v-1.25ZM19.375 10.625h1.25v1.25h-1.25v-1.25ZM19.375 13.125h1.25v1.25h-1.25v-1.25ZM16.875 13.125h1.25v1.25h-1.25v-1.25ZM16.875 15.625h1.25v1.25h-1.25v-1.25ZM19.375 15.625h1.25v1.25h-1.25v-1.25ZM19.375 18.125h1.25v1.25h-1.25v-1.25ZM16.875 18.125h1.25v1.25h-1.25v-1.25ZM24.375 10.625h1.25v1.25h-1.25v-1.25ZM24.375 15.625h1.25v1.25h-1.25v-1.25ZM24.375 13.125h1.25v1.25h-1.25v-1.25ZM24.375 18.125h1.25v1.25h-1.25v-1.25ZM26.875 10.625h1.25v1.25h-1.25v-1.25ZM26.875 18.125h1.25v1.25h-1.25v-1.25ZM26.875 15.625h1.25v1.25h-1.25v-1.25ZM26.875 13.125h1.25v1.25h-1.25v-1.25ZM29.375 10.625h1.25v1.25h-1.25v-1.25ZM29.375 13.125h1.25v1.25h-1.25v-1.25ZM29.375 15.625h1.25v1.25h-1.25v-1.25ZM29.375 18.125h1.25v1.25h-1.25v-1.25ZM31.875 10.625h1.25v1.25h-1.25v-1.25ZM31.875 15.625h1.25v1.25h-1.25v-1.25ZM31.875 13.125h1.25v1.25h-1.25v-1.25ZM31.875 18.125h1.25v1.25h-1.25v-1.25ZM6.875 18.125h1.25v1.25h-1.25v-1.25ZM6.875 13.125h1.25v1.25h-1.25v-1.25ZM6.875 10.625h1.25v1.25h-1.25v-1.25ZM6.875 15.625h1.25v1.25h-1.25v-1.25ZM9.375 18.125h1.25v1.25h-1.25v-1.25ZM9.375 15.625h1.25v1.25h-1.25v-1.25ZM9.375 13.125h1.25v1.25h-1.25v-1.25ZM9.375 10.625h1.25v1.25h-1.25v-1.25ZM11.875 15.625h1.25v1.25h-1.25v-1.25ZM11.875 18.125h1.25v1.25h-1.25v-1.25ZM11.875 13.125h1.25v1.25h-1.25v-1.25ZM11.875 10.625h1.25v1.25h-1.25v-1.25Z"/></g><defs><clipPath id="a"><path fill="#fff" d="M0 0h40v40H0z"/></clipPath></defs></svg>
